X:1
T:In nomine Jesu - Handl
T:James Gibb editions
T:#
%%score { 1 | 2 } { 3 | 4 }
L:1/8
Q:1/4=200
M:none
K:F
V:1 treble-8 nm="Tenor I"
V:2 treble-8 
V:3 bass nm="Bass I"
V:4 bass 
V:1
 d16 | _e12 e4 |"^In nomine Jesu" d8 c8 | =B4 d4 c4 _B4 | c8"^Jacob Handl\n(1550-1591)" d8 | f16 | %6
w: In|no- mi-|ne Je-|su o- mne ge-|nu- fle-|cta-|
 f8 z4 f4 | g12 g4 | f8 _e8 | d8 z4 g4 | f4 d4 f4 f4 | f8 f4 f4 | g12 e4 | f8 d8 | _e12 c4 | %15
w: tur, In|no- mi-|ne Je-|su o-|mne ge- nu- fle-|cta- tur, coe-|le- sti-|um, ter-|re- stri-|
 d8 _e8 | _e4 d8 ^c4 | d4 f4 e4 d4 | f8 f8 | f16 | f4 e4 d8 | e4 e4 f4 f4- | f2 f2 d4 d4 c4 | %23
w: um, et|in- fer- no-|rum: et o- mnis|lin- gua|con-|fi- te- a-|tur: Qui- a Do\-|* mi- nus no- ster|
 d8 e8 | f8 e8 ||[M:3/1][Q:1/4=400] z8 z8 d8 | d12 d4 d8 | d16 B8 | _e8 d16 | d16 d8 | =e12 d4 e8 | %31
w: Je- sus|Chri- stus|in|glo- ri- a|est De-|i Pa-|tris, in|glo- ri- a|
[M:3/1][K:treble-8][Q:1/4=400][Q:1/4=400] f16 d8 | g8 f16 | f16 d8 | %34
w: est De-|i Pa-|tris, in|
 d12[Q:1/4=397] d4[Q:1/4=391] d8 |[Q:1/4=378] d16[Q:1/4=366] B8 |[Q:1/4=358] _e8[Q:1/4=347] d16 | %37
w: glo- ri- a|est De-|i Pa-|
[Q:1/4=340] d16 |] %38
w: tris.|
V:2
 B16 | B12 B4 | B8 G8 | G4 _B4 A4 G4 | A4 c8 (B4- | B4 A2 G2 A8) | B8 A4 d4 | d12 d4 | d8 B8 | %9
w: In|no- mi-|ne Je-|su o- mne ge-|nu- fle- cta\-||* tur, in|no- mi-|ne Je-|
 B8 z4 d4 | c4 B4 c2 d2 c4 | d12 d4- | d4 d8 ^c4 | d8 B8- | B4 B8 A4 | B8 B8 | c4 A4 A8 | %17
w: su o-|mne ge- nu- fle- cta-|tur, coe-|* le- sti-|um, ter\-|* re- stri-|um, et|in- fer- no-|
 A4 d4 c4 B4 | (c2 A2 d4) c8 | d16 | c4 c8 =B4 | c4 c4 d4 c4- | c2 c2 B4 A4 G4 | A8 c8 | d8 c8 || %25
w: rum: et o- mnis|lin\- * * gua|con-|fi- te- a-|tur: Qui- a Do\-|* mi- nus no- ster|Je- sus|Chri- stus|
[M:3/1] z8 z8 A8 | B12 A4 B8 | A16 G8 | c8 A16 | =B16 B8 | c12 d4 c8 |[M:3/1][K:treble-8] c16 B8 | %32
w: in|glo- ri- a|est De-|i Pa-|tris, in|glo- ri- a|est De-|
 _e8 c16 | d16 d8 | B12 A4 B8 | A16 G8 | c8 A16 | =B16 |] %38
w: i Pa-|tris, in|glo- ri- a|est De-|i Pa-|tris.|
V:3
 F,16 | G,12 G,4 | F,8 _E,8 | D,8 z4 B,4 | A,4 G,4 A,4 B,4 | C16 | D8 z4 A,4 | B,12 B,4 | A,8 G,8 | %9
w: In|no- mi-|ne Je-|su o-|mne ge- nu- fle-|cta-|tur, in|no- mi-|ne Je-|
 F,4 G,4 F,4 B,4 | A,4 G,4 (A,2 B,4 A,2) | B,8 z4 B,4- | B,4 B,8 A,4 | A,8 z4 G,4 | G,12 F,4 | %15
w: su o- mne ge-|nu- fle- cta\- * *|tur, coe\-|* le- sti-|um, ter-|re- stri-|
 F,8 G,8 | G,4 F,4 =E,8 | F,8 z4 B,4 | A,4 B,8 A,4 | B,8 A,8 | A,4 G,4 F,8 | G,4 G,4 B,4 A,4- | %22
w: um, et|in- fer- no-|rum: et|o- mnis lin-|gua con-|fi- te- a-|tur: Qui- a Do\-|
 A,2 A,2 G,4 ^F,4 G,4- | G,4 ^F,4 G,8 | B,8 G,8 ||[M:3/1] z8 z8 ^F,8 | G,12 A,4 G,8 | ^F,16 G,8 | %28
w: * mi- nus no- ster|* Je- sus|Chri- stus|in|glo- ri- a|est De-|
 G,16 ^F,8 | G,16 G,8 | G,12 G,4 G,8 |[M:3/1] A,16 G,8 | B,16 A,8 | B,16 A,8 | G,12 A,4 G,8 | %35
w: i Pa-|tris, in|glo- ri- a|est De-|i Pa-|tris, in|glo- ri- a|
 ^F,16 G,8 | G,16 ^F,8 | G,16 |] %38
w: est De-|i Pa-|tris.|
V:4
 B,,16 | _E,12 E,4 | B,,8 C,8 | G,,8 z4 G,4 | F,4 E,4 F,4 G,4 | F,16 | B,,8 D,8 | G,12 G,4 | %8
w: In|no- mi-|ne Je-|su o-|mne ge- nu- fle-|cta-|tur, in|no- mi-|
 D,8 _E,8 | B,,4 B,4 A,4 G,4 | A,4 B,4 F,8 | B,,8 B,8 | G,12 A,4 | D,8 G,8 | _E,12 F,4 | %15
w: ne Je-|su o- mne ge-|nu- fle- cta-|tur, coe-|le- sti-|um, ter-|re- stri-|
 B,,8 _E,8 | C,4 D,4 A,,8 | D,8 z4 G,4 | F,4 D,4 F,8 | B,,8 D,8 | F,4 C,4 D,8 | C,4 C,4 B,,4 F,4- | %22
w: um, et|in- fer- no-|rum: et|o- mnis lin-|gua con-|fi- te- a-|tur: Qui- a Do\-|
 F,2 F,2 G,4 D,4 _E,4 | D,8 C,8 | B,,8 C,8 ||[M:3/1] z8 z8 D,8 | G,,12 ^F,,4 G,,8 | D,16 _E,8 | %28
w: * mi- nus no- ster|Je- sus|Chri- stus|in|glo- ri- a|est De-|
 C,8 D,16 | G,,16 G,8 | C,12 =B,,4 C,8 |[M:3/1] F,16 G,8 | _E,8 F,16 | B,,16 D,8 | %34
w: i Pa-|tris, in|glo- ri- a|est De-|i Pa-|tris, in|
 G,,12 ^F,,4 G,,8 | D,16 _E,8 | C,8 D,16 | G,,16 |] %38
w: glo- ri- a|est De-|i Pa-|tris.|

